storage/app/icons/phosphoricons/fill/synagogue-fill.svg

<svg xmlns="http://www.w3.org/2000/svg" fill="currentColor" viewBox="0 0 256 256"><path d="M208 57.38V32a8 8 0 0 0-16 0v25.38A24 24 0 0 0 176 80v42.21l-40-22.85V72a8 8 0 0 0-16 0v27.36l-40 22.85V80a24 24 0 0 0-16-22.62V32a8 8 0 0 0-16 0v25.38A24 24 0 0 0 32 80v136a8 8 0 0 0 8 8h64a8 8 0 0 0 8-8v-40a16 16 0 0 1 32 0v40a8 8 0 0 0 8 8h64a8 8 0 0 0 8-8V80a24 24 0 0 0-16-22.62M64 208H48v-96h16Zm144 0h-16v-96h16Z"/></svg>

<svg xmlns="http://www.w3.org/2000/svg" viewBox="0 0 256 256" fill="currentColor"><path d="M208,57.38V32a8,8,0,0,0-16,0V57.38A24,24,0,0,0,176,80v42.21L136,99.36V72a8,8,0,0,0-16,0V99.36L80,122.21V80A24,24,0,0,0,64,57.38V32a8,8,0,0,0-16,0V57.38A24,24,0,0,0,32,80V216a8,8,0,0,0,8,8h64a8,8,0,0,0,8-8V176a16,16,0,0,1,32,0v40a8,8,0,0,0,8,8h64a8,8,0,0,0,8-8V80A24,24,0,0,0,208,57.38ZM64,208H48V112H64Zm144,0H192V112h16Z"/></svg>
